X: 07117
T: TOTO'S POLKA
C: Bob McQuillen 8 Apr 89
B: Bob's Note Book 7 #117
%R: polka, march
Z: 2021 John Chambers <jc:trillian.mit.edu>
M: C
L: 1/8
K: D
|:f4 d3A | B2A2 A4 | F2A2 d2f2 | e8 | f4 d3A | B2A2 A2d2 | e3d e2f2 | d8 |
| fgfe d3A | B2dB A2AG | F2A2 d2f2 | e4 e2de | fgfe d2AA | B2dB A2de | fedB A2e2 | d8 :|
|:A3d f2d2 | A3d f2d2 | A3B d2f2 | e8 | A2de f2d2 | A2de f2d2 | e3d e2f2 | d8 |
| ABde f2d2 | ABde f2df | a3b a2f2 | g6 fg | abaf d2fd | B2dB A2df | abaf e2f2 | d8 :|
%%begintext align
%% Jim Horve, of Portland, OR.,
%% has the nicest old dog you ever saw. She's part shepherd and
%% part Great Dane - a beautiful cross, and she's a real sweetheart.
%% When I was out there for the Spring Festival, she made me
%% really welcome, so Toto, I hope you can wag your tail
%% in time to this tune!
%%endtext

%%sep 1 1 500

%%sep 1 1 500

